X:8
T:Lady Iveagh
R:air
C:Thomas Connellan (c. 1640 - 1698)
H:Turlough O'Carolan probably adapted this piece and named it "Miss Crofton"
H:see carolan#25
Z:id:hn-air-8
M:C
L:1/8
Q:1/4=90
K:Ador
A2 dB A2 B/A/G/E/ | G3 A G2 A/G/E/D/ | B3 A B/d/e dB | GFGB A4 :| 
|: g>f ga g2 a/g/e/d/ | ag g/a/b a2 b/a/g/e/ | g3 a g2 fg | a4 e2 g2 | 
a3 g/a/ bagb | a2 g<e gedg | e2 dB d2 dB/A/ | G>FGB A4 :|

